X: 1
T: Ballintore, The (&quot;Kitty O'Neill's/O'Shea's Barndance&quot;)
M: 4/4
L: 1/8
R: barndance
K: Gmaj
|: GA |\ 
B2 BD B2 BD | BABc BAGB | A2 AF A2 AF | Agfe dcBA |
B2 BD B2 BD | BABc BAGB | A2 AF A2 Ag | fdcA G2 :|
|: GA |\
BDGB DBBA | BDBD BAGB | A2 AF A2 AF | Agfe dcBA |
(3BcB BD (3BcB BD | BABc BAGB | A2 AF A2 Ag | fdcA G2 :|
|: GA |\
B2 g2 B2 BG | cBce A2 AB | cdef gfge | (3dcB cA B2 GA |
B2 gf gdBG | cBce A2 AB | cdef gfge | dBcA G2 :|
